src/svgs/tap-water.svg

<svg xmlns="http://www.w3.org/2000/svg" viewBox="0 0 24 24" width="512" height="512" aria-labelledby="lhtap-water-desc lhtap-water-title"><title id="lhtap-water-title">Tap Water Icon</title><desc id="lhtap-water-desc">A picture depicting tap water.</desc><path d="M22 6v8h-2v-2H9v2H4v-2a4 4 0 014-4h4V7a1 1 0 011-1V4h-1a1 1 0 010-2h5a1 1 0 010 2h-1v2a1 1 0 011 1v1h3V6zM6.5 16s-4.5 6 0 6 0-6 0-6z"/></svg>

<svg xmlns="http://www.w3.org/2000/svg" viewBox="0 0 24 24"><path d="M22,6v8H20V12H9v2H4V12A4,4,0,0,1,8,8h4V7a1,1,0,0,1,1-1V4H12a1,1,0,0,1,0-2h5a1,1,0,0,1,0,2H16V6a1,1,0,0,1,1,1V8h3V6ZM6.5,16s-4.5,6,0,6S6.5,16,6.5,16Z"/></svg>
